!!!OTL: ROTHE BAECKLE BLAU AEUGLE
!!!ARE: Europa, Mitteleuropa, Deutschland, Bayern
!!!SCT: E1019
!!!YEM: Copyright 1995, estate of Helmut Schaffrath.
**kern
*ICvox
*Ivox
*M3/4
*k[f#]
*G:
{8d
8d
=1
4.g
8f#
4g
=2
4a
4ee}
{8dd
8dd
=3
4cc
4e
4f#
=4
4g
4ee}
{4dd
=5
4b
4f#
4g
=6
4a
4ee}
{8dd
8dd
=7
4cc
4e
4f#
=8
4g
4r}
==
!!!AGN: Tanz - Lied; Liebe
!!!ONB: ESAC (Essen Associative Code) Database: ERK3
!!!AMT: simple triple
!!!AIN: vox
!!!EED: Helmut Schaffrath
!!!EEV: 1.0
*-
